component-icons/svg/stockchart.svg

<?xml version="1.0" encoding="utf-8"?>
<!-- Generator: Adobe Illustrator 24.2.3, SVG Export Plug-In . SVG Version: 6.00 Build 0)  -->
<svg version="1.1" id="Layer_1" xmlns="http://www.w3.org/2000/svg" xmlns:xlink="http://www.w3.org/1999/xlink" x="0px" y="0px"
	 width="24px" height="24px" viewBox="0 0 24 24" enable-background="new 0 0 24 24" xml:space="preserve">
<path d="M16,9h-4v3h4V9z M15,4l-2,2v2h2V4z M22,11h-4v2h4V11z M21,16v-2h-2v2H21z M21,5l-2,2v3h2V5z M9,3L7,5v2h2V3z M15,17v-4h-2v4
	H15z M3,18v-3H1v3H3z M0,20v2h22l2-2H0z M4,9H0v5h4V9z M9,15v-4H7v4H9z M10,8H6v2h4V8z M3,2L1,4v4h2V2z"/>
</svg>

<svg id="Layer_1" data-name="Layer 1" xmlns="http://www.w3.org/2000/svg" viewBox="0 0 24 24">
  <defs>
    <style>
      .cls-1 {
        fill: gray;
      }
    </style>
  </defs>
  <title>stockchart</title>
  <path class="cls-1" d="M16,9H12v3h4ZM15,4,13,6V8h2Zm7,7H18v2h4Zm-1,5V14H19v2ZM21,5,19,7v3h2ZM9,3,7,5V7H9Zm6,14V13H13v4ZM3,18V15H1v3ZM0,20v2H22l2-2ZM4,9H0v5H4Zm5,6V11H7v4Zm1-7H6v2h4ZM3,2,1,4V8H3Z"/>
</svg>
